odm/etc/Custom_LUT_hlg.cube
LUT_3D_SIZE 9
0 0 0
0.0762463 0 0.00391007
0.15347 0 0.00879765
0.230694 0 0.0136852
0.307918 0 0.0185728
0.404692 0 0.0244379
0.550342 0 0.0332356
0.764418 0 0.0459433
1 0 0.0645161
0 0.0723363 0
0.0723363 0.0713587 0
0.15347 0.0664712 0
0.230694 0.0537634 0.00684262
0.307918 0.0156403 0.0136852
0.404692 0 0.0215054
0.55132 0 0.0312805
0.764418 0 0.0439883
1 0 0.0635386
0 0.144673 0
0.0371457 0.144673 0
0.146628 0.142717 0
0.228739 0.139785 0
0.307918 0.132942 0
0.404692 0.120235 0
0.55132 0.0801564 0.0234604
0.765396 0 0.0391007
1 0 0.0606061
0 0.217986 0
0 0.217986 0
0.125122 0.217009 0
0.219941 0.215054 0
0.30303 0.212121 0
0.403715 0.206256 0
0.55132 0.189638 0
0.765396 0.144673 0.0293255
1 0 0.0537634
0 0.2913 0
0 0.2913 0
0.0742913 0.290323 0
0.202346 0.289345 0
0.294233 0.28739 0
0.398827 0.28348 0
0.549365 0.274682 0
0.765396 0.249267 0
1 0.174976 0.0439883
0 0.382209 0
0 0.382209 0
0 0.382209 0
0.159335 0.381232 0
0.27175 0.380254 0
0.386119 0.377322 0
0.5435 0.372434 0
0.763441 0.356794 0
1 0.317693 0.00293255
0 0.521017 0
0 0.521017 0
0 0.520039 0
0 0.520039 0
0.207234 0.519062 0
0.351906 0.517107 0
0.525904 0.514174 0
0.755621 0.505376 0
1 0.482893 0
0 0.723363 0
0 0.722385 0
0 0.722385 0
0 0.722385 0
0 0.721408 0
0.242424 0.72043 0
0.474096 0.718475 0
0.730205 0.713587 0
1 0.70088 0
0 1 0
0 1 0
0 1 0
0 1 0
0 1 0
0 1 0
0.302053 1 0
0.653959 1 0
1 1 0
0 0 0.0625611
0.0752688 0 0.0674487
0.152493 0 0.0723363
0.229717 0 0.0752688
0.307918 0 0.0782014
0.404692 0 0.0811339
0.550342 0 0.0860215
0.764418 0 0.0928641
1 0 0.104594
0 0.0723363 0.0694037
0.0713587 0.0713587 0.0713587
0.152493 0.0654936 0.0733138
0.230694 0.0537634 0.0752688
0.307918 0.0127077 0.0782014
0.404692 0 0.0811339
0.550342 0 0.085044
0.764418 0 0.0928641
1 0 0.104594
0 0.144673 0.0723363
0.0312805 0.144673 0.0723363
0.14565 0.142717 0.0742913
0.227761 0.139785 0.0752688
0.30694 0.132942 0.0772239
0.404692 0.120235 0.0801564
0.55132 0.0801564 0.0840665
0.765396 0 0.0909091
1 0 0.102639
0 0.217986 0.0713587
0 0.217986 0.0713587
0.124145 0.217009 0.0723363
0.218964 0.215054 0.0733138
0.30303 0.212121 0.0752688
0.402737 0.206256 0.0772239
0.55132 0.189638 0.0811339
0.765396 0.143695 0.0879765
1 0 0.0997067
0 0.2913 0.0674487
0 0.2913 0.0674487
0.0723363 0.290323 0.0684262
0.201369 0.289345 0.0694037
0.293255 0.28739 0.0703812
0.397849 0.28348 0.0723363
0.549365 0.273705 0.0762463
0.765396 0.249267 0.083089
1 0.173998 0.0957967
0 0.382209 0.0576735
0 0.382209 0.058651
0 0.382209 0.058651
0.158358 0.381232 0.0596285
0.27175 0.380254 0.0615836
0.386119 0.377322 0.0635386
0.5435 0.372434 0.0674487
0.763441 0.356794 0.0742913
1 0.316716 0.0879765
0 0.521017 0.0136852
0 0.521017 0.0146628
0 0.520039 0.0166178
0 0.520039 0.0205279
0.206256 0.519062 0.0234604
0.351906 0.517107 0.0293255
0.524927 0.514174 0.0371457
0.755621 0.505376 0.0488759
1 0.482893 0.0674487
0 0.723363 0
0 0.722385 0
0 0.722385 0
0 0.722385 0
0 0.721408 0
0.242424 0.72043 0
0.473118 0.718475 0
0.729228 0.713587 0
1 0.70088 0
0 1 0
0 1 0
0 1 0
0 1 0
0 1 0
0 1 0
0.301075 1 0
0.653959 1 0
1 1 0
0 0 0.1261
0.0713587 0 0.13001
0.151515 0 0.136852
0.229717 0 0.14174
0.30694 0 0.14565
0.403715 0 0.14956
0.550342 0 0.154448
0.764418 0 0.162268
1 0 0.172043
0 0.0713587 0.13392
0.0654936 0.0703812 0.135875
0.150538 0.0654936 0.138807
0.229717 0.0518084 0.142717
0.30694 0 0.14565
0.404692 0 0.14956
0.550342 0 0.154448
0.764418 0 0.162268
1 0 0.172043
0 0.144673 0.140762
0 0.144673 0.140762
0.142717 0.142717 0.142717
0.226784 0.138807 0.144673
0.305963 0.132942 0.147605
0.404692 0.119257 0.150538
0.550342 0.0791789 0.154448
0.764418 0 0.16129
1 0 0.171065
0 0.217986 0.143695
0 0.217986 0.144673
0.120235 0.217009 0.14565
0.217986 0.215054 0.146628
0.302053 0.212121 0.148583
0.402737 0.205279 0.150538
0.550342 0.189638 0.154448
0.765396 0.143695 0.160313
1 0 0.170088
0 0.2913 0.14565
0 0.290323 0.14565
0.0635386 0.290323 0.146628
0.199413 0.289345 0.147605
0.292278 0.28739 0.148583
0.397849 0.28348 0.150538
0.548387 0.273705 0.15347
0.764418 0.249267 0.159335
1 0.173998 0.168133
0 0.382209 0.144673
0 0.382209 0.14565
0 0.382209 0.14565
0.155425 0.381232 0.146628
0.269795 0.380254 0.147605
0.385142 0.377322 0.148583
0.542522 0.371457 0.151515
0.762463 0.356794 0.156403
1 0.316716 0.1652
0 0.521017 0.139785
0 0.521017 0.140762
0 0.520039 0.140762
0 0.520039 0.140762
0.204301 0.519062 0.14174
0.349951 0.517107 0.142717
0.524927 0.514174 0.14565
0.754643 0.505376 0.14956
1 0.482893 0.15738
0 0.723363 0.123167
0 0.722385 0.123167
0 0.722385 0.123167
0 0.722385 0.124145
0 0.721408 0.124145
0.239492 0.72043 0.125122
0.473118 0.718475 0.128055
0.729228 0.713587 0.131965
1 0.70088 0.139785
0 1 0.0518084
0 1 0.0518084
0 1 0.0527859
0 1 0.0537634
0 1 0.0557185
0 1 0.0576735
0.29912 1 0.0625611
0.652981 1 0.0703812
1 1 0.0840665
0 0 0.188661
0.0625611 0 0.192571
0.148583 0 0.199413
0.227761 0 0.205279
0.305963 0 0.210166
0.403715 0 0.216031
0.549365 0 0.222874
0.763441 0 0.230694
1 0 0.241447
0 0.0713587 0.196481
0.0527859 0.0694037 0.198436
0.147605 0.0635386 0.202346
0.227761 0.0488759 0.207234
0.305963 0 0.211144
0.403715 0 0.216031
0.549365 0 0.222874
0.764418 0 0.230694
1 0 0.241447
0 0.144673 0.205279
0 0.143695 0.206256
0.13783 0.142717 0.208211
0.223851 0.138807 0.211144
0.304985 0.131965 0.214076
0.403715 0.11828 0.217986
0.550342 0.0762463 0.223851
0.764418 0 0.230694
1 0 0.240469
0 0.217986 0.211144
0 0.217009 0.212121
0.11437 0.217009 0.213099
0.215054 0.215054 0.215054
0.300098 0.211144 0.217009
0.400782 0.205279 0.219941
0.549365 0.188661 0.223851
0.764418 0.142717 0.230694
1 0 0.240469
0 0.2913 0.215054
0 0.290323 0.216031
0.0469208 0.290323 0.216031
0.195503 0.289345 0.217986
0.290323 0.28739 0.218964
0.395894 0.28348 0.220919
0.54741 0.273705 0.224829
0.764418 0.249267 0.230694
1 0.173021 0.239492
0 0.382209 0.217986
0 0.382209 0.217986
0 0.382209 0.218964
0.150538 0.381232 0.219941
0.266862 0.380254 0.220919
0.383187 0.377322 0.222874
0.541544 0.371457 0.225806
0.762463 0.356794 0.230694
1 0.316716 0.238514
0 0.521017 0.218964
0 0.521017 0.218964
0 0.520039 0.218964
0 0.520039 0.219941
0.199413 0.519062 0.220919
0.347996 0.517107 0.221896
0.522972 0.514174 0.223851
0.753666 0.505376 0.227761
1 0.482893 0.235582
0 0.723363 0.214076
0 0.722385 0.214076
0 0.722385 0.214076
0 0.722385 0.214076
0 0.721408 0.215054
0.236559 0.72043 0.216031
0.471163 0.718475 0.217986
0.72825 0.713587 0.220919
1 0.70088 0.226784
0 1 0.193548
0 1 0.193548
0 1 0.193548
0 1 0.193548
0 1 0.194526
0 1 0.194526
0.296188 1 0.196481
0.652004 1 0.199413
1 1 0.205279
0 0 0.252199
0.0449658 0 0.255132
0.143695 0 0.261975
0.224829 0 0.26784
0.304008 0 0.273705
0.40176 0 0.280547
0.548387 0 0.288368
0.763441 0 0.298143
1 0 0.309873
0 0.0694037 0.259042
0.0224829 0.0674487 0.260997
0.14174 0.0606061 0.264907
0.224829 0.0449658 0.270772
0.304008 0 0.27566
0.402737 0 0.281525
0.549365 0 0.289345
0.763441 0 0.298143
1 0 0.309873
0 0.144673 0.268817
0 0.143695 0.269795
0.130987 0.14174 0.27175
0.220919 0.13783 0.27566
0.302053 0.130987 0.278592
0.40176 0.117302 0.28348
0.549365 0.0742913 0.290323
0.763441 0 0.29912
1 0 0.309873
0 0.217986 0.276637
0 0.217009 0.276637
0.103617 0.216031 0.278592
0.210166 0.214076 0.280547
0.297165 0.211144 0.28348
0.399805 0.204301 0.286413
0.548387 0.188661 0.292278
0.763441 0.140762 0.300098
1 0 0.309873
0 0.2913 0.282502
0 0.290323 0.282502
0 0.290323 0.28348
0.190616 0.288368 0.284457
0.286413 0.286413 0.286413
0.393939 0.282502 0.289345
0.546432 0.272727 0.294233
0.763441 0.248289 0.300098
1 0.172043 0.309873
0 0.382209 0.28739
0 0.382209 0.28739
0 0.382209 0.288368
0.142717 0.381232 0.289345
0.262952 0.380254 0.290323
0.381232 0.377322 0.292278
0.540567 0.371457 0.296188
0.761486 0.356794 0.301075
1 0.315738 0.309873
0 0.521017 0.2913
0 0.520039 0.2913
0 0.520039 0.292278
0 0.520039 0.292278
0.193548 0.519062 0.293255
0.345064 0.517107 0.29521
0.521994 0.514174 0.297165
0.752688 0.505376 0.302053
1 0.481916 0.308895
0 0.723363 0.292278
0 0.722385 0.292278
0 0.722385 0.292278
0 0.722385 0.293255
0 0.721408 0.293255
0.230694 0.72043 0.294233
0.469208 0.718475 0.296188
0.727273 0.713587 0.29912
1 0.70088 0.304985
0 1 0.28348
0 1 0.28348
0 1 0.28348
0 1 0.28348
0 1 0.284457
0 1 0.284457
0.292278 1 0.286413
0.651026 1 0.288368
1 1 0.293255
0 0 0.332356
0 0 0.334311
0.134897 0 0.340176
0.220919 0 0.347019
0.301075 0 0.352884
0.399805 0 0.360704
0.54741 0 0.369501
0.762463 0 0.381232
1 0 0.394917
0 0.0664712 0.337243
0 0.0635386 0.339198
0.130987 0.0557185 0.344086
0.219941 0.0361681 0.348974
0.301075 0 0.354839
0.399805 0 0.361681
0.54741 0 0.370479
0.762463 0 0.382209
1 0 0.394917
0 0.143695 0.347019
0 0.142717 0.348974
0.11828 0.140762 0.350929
0.214076 0.135875 0.354839
0.298143 0.129032 0.358749
0.398827 0.11437 0.364614
0.54741 0.0684262 0.372434
0.762463 0 0.383187
1 0 0.395894
0 0.217009 0.356794
0 0.217009 0.356794
0.083089 0.216031 0.358749
0.203324 0.214076 0.361681
0.292278 0.210166 0.364614
0.396872 0.203324 0.368524
0.546432 0.186706 0.375367
0.762463 0.138807 0.384164
1 0 0.395894
0 0.290323 0.363636
0 0.290323 0.364614
0 0.289345 0.365591
0.180841 0.288368 0.367546
0.281525 0.286413 0.369501
0.391007 0.282502 0.372434
0.544477 0.272727 0.377322
0.762463 0.247312 0.386119
1 0.170088 0.396872
0 0.382209 0.371457
0 0.382209 0.371457
0 0.382209 0.372434
0.128055 0.381232 0.373412
0.257087 0.379277 0.374389
0.377322 0.377322 0.377322
0.537634 0.371457 0.381232
0.759531 0.355816 0.388074
1 0.314761 0.397849
0 0.521017 0.378299
0 0.520039 0.378299
0 0.520039 0.379277
0 0.520039 0.380254
0.183773 0.519062 0.381232
0.340176 0.517107 0.382209
0.519062 0.513196 0.385142
0.751711 0.504399 0.390029
1 0.481916 0.397849
0 0.722385 0.384164
0 0.722385 0.384164
0 0.722385 0.384164
0 0.722385 0.385142
0 0.721408 0.385142
0.221896 0.72043 0.386119
0.465298 0.718475 0.388074
0.725318 0.713587 0.391984
1 0.70088 0.397849
0 1 0.383187
0 1 0.383187
0 1 0.383187
0 1 0.384164
0 1 0.384164
0 1 0.385142
0.285435 1 0.386119
0.648094 1 0.389052
1 1 0.392962
0 0 0.451613
0 0 0.453568
0.109482 0 0.458456
0.209189 0 0.464321
0.294233 0 0.471163
0.394917 0 0.478983
0.544477 0 0.490714
0.760508 0 0.504399
1 0 0.521017
0 0.056696 0.456501
0 0.0537634 0.457478
0.103617 0.0430108 0.461388
0.207234 0 0.467253
0.293255 0 0.473118
0.394917 0 0.480938
0.544477 0 0.491691
0.760508 0 0.504399
1 0 0.521017
0 0.14174 0.465298
0 0.140762 0.466276
0.0821114 0.13783 0.469208
0.200391 0.132942 0.473118
0.290323 0.125122 0.478006
0.393939 0.109482 0.484848
0.5435 0.056696 0.493646
0.760508 0 0.506354
1 0 0.521017
0 0.216031 0.476051
0 0.216031 0.476051
0 0.215054 0.478006
0.186706 0.212121 0.480938
0.282502 0.208211 0.484848
0.390029 0.201369 0.489736
0.542522 0.183773 0.497556
0.760508 0.13392 0.508309
1 0 0.522972
0 0.290323 0.484848
0 0.290323 0.484848
0 0.289345 0.485826
0.160313 0.28739 0.488759
0.269795 0.285435 0.490714
0.383187 0.281525 0.494624
0.539589 0.270772 0.501466
0.759531 0.245357 0.510264
1 0.1652 0.523949
0 0.382209 0.493646
0 0.382209 0.494624
0 0.381232 0.495601
0.0889541 0.380254 0.496579
0.243402 0.379277 0.498534
0.368524 0.376344 0.501466
0.532747 0.370479 0.506354
0.756598 0.354839 0.514174
1 0.313783 0.525904
0 0.520039 0.505376
0 0.520039 0.505376
0 0.520039 0.505376
0 0.519062 0.506354
0.159335 0.518084 0.507331
0.330401 0.517107 0.509286
0.513196 0.513196 0.513196
0.747801 0.504399 0.519062
1 0.480938 0.528837
0 0.722385 0.516129
0 0.722385 0.516129
0 0.722385 0.516129
0 0.722385 0.517107
0 0.721408 0.517107
0.202346 0.72043 0.518084
0.457478 0.718475 0.521017
0.72043 0.71261 0.524927
1 0.699902 0.531769
0 1 0.522972
0 1 0.522972
0 1 0.522972
0 1 0.523949
0 1 0.523949
0 1 0.524927
0.269795 1 0.525904
0.642229 1 0.528837
1 1 0.533724
0 0 0.627566
0 0 0.628543
0 0 0.632454
0.178886 0 0.637341
0.276637 0 0.644184
0.384164 0 0.652004
0.537634 0 0.664712
0.755621 0 0.681329
1 0 0.70088
0 0.0195503 0.630499
0 0 0.631476
0 0 0.635386
0.175953 0 0.640274
0.274682 0 0.646139
0.383187 0 0.653959
0.536657 0 0.665689
0.755621 0 0.681329
1 0 0.70088
0 0.134897 0.638319
0 0.13392 0.639296
0 0.130987 0.642229
0.1652 0.125122 0.646139
0.269795 0.115347 0.651026
0.381232 0.0967742 0.657869
0.535679 0 0.668622
0.755621 0 0.683284
1 0 0.701857
0 0.214076 0.649071
0 0.213099 0.649071
0 0.211144 0.651026
0.143695 0.209189 0.654936
0.260997 0.204301 0.657869
0.376344 0.196481 0.663734
0.533724 0.177908 0.672532
0.754643 0.12219 0.686217
1 0 0.703812
0 0.288368 0.658847
0 0.288368 0.658847
0 0.28739 0.660802
0.100684 0.285435 0.662757
0.244379 0.28348 0.665689
0.367546 0.278592 0.670577
0.530792 0.26784 0.678397
0.753666 0.240469 0.68915
1 0.156403 0.705767
0 0.381232 0.670577
0 0.381232 0.670577
0 0.380254 0.671554
0 0.379277 0.673509
0.211144 0.378299 0.675464
0.350929 0.375367 0.679374
0.521994 0.368524 0.685239
0.750733 0.351906 0.694037
1 0.309873 0.7087
0 0.520039 0.685239
0 0.520039 0.685239
0 0.519062 0.686217
0 0.519062 0.687195
0.0899316 0.518084 0.688172
0.307918 0.516129 0.691105
0.500489 0.512219 0.695015
0.740958 0.502444 0.701857
1 0.478983 0.713587
0 0.722385 0.70088
0 0.722385 0.70088
0 0.722385 0.701857
0 0.721408 0.702835
0 0.721408 0.702835
0.154448 0.72043 0.70479
0.441838 0.717498 0.707722
0.71261 0.71261 0.71261
1 0.698925 0.721408
0 1 0.71652
0 1 0.71652
0 1 0.71652
0 1 0.717498
0 1 0.717498
0 1 0.718475
0.235582 1 0.72043
0.631476 1 0.723363
1 1 0.729228
0 0 0.880743
0 0 0.88172
0 0 0.883675
0.0469208 0 0.888563
0.227761 0 0.893451
0.355816 0 0.901271
0.520039 0 0.913979
0.745846 0 0.931574
1 0 0.955034
0 0 0.882698
0 0 0.883675
0 0 0.886608
0.0146628 0 0.890518
0.225806 0 0.895406
0.354839 0 0.903226
0.520039 0 0.914956
0.744868 0 0.932551
1 0 0.956012
0 0.117302 0.889541
0 0.116325 0.889541
0 0.111437 0.892473
0 0.103617 0.895406
0.217009 0.0899316 0.900293
0.350929 0.058651 0.907136
0.518084 0 0.917889
0.744868 0 0.934506
1 0 0.956989
0 0.206256 0.898338
0 0.205279 0.899316
0 0.203324 0.900293
0 0.199413 0.903226
0.202346 0.194526 0.907136
0.343109 0.185728 0.913001
0.515152 0.163245 0.922776
0.743891 0.0948192 0.938416
1 0 0.958944
0 0.284457 0.908113
0 0.284457 0.909091
0 0.282502 0.910068
0 0.280547 0.913001
0.175953 0.277615 0.915934
0.332356 0.272727 0.920821
0.509286 0.26002 0.929619
0.741935 0.230694 0.942326
1 0.135875 0.961877
0 0.379277 0.920821
0 0.379277 0.921799
0 0.378299 0.922776
0 0.376344 0.924731
0.113392 0.374389 0.926686
0.31085 0.371457 0.930596
0.499511 0.363636 0.937439
0.737048 0.346041 0.949169
1 0.302053 0.966764
0 0.519062 0.938416
0 0.519062 0.938416
0 0.518084 0.939394
0 0.517107 0.941349
0 0.516129 0.942326
0.255132 0.514174 0.945259
0.475073 0.510264 0.950147
0.725318 0.499511 0.958944
1 0.475073 0.973607
0 0.722385 0.959922
0 0.722385 0.960899
0 0.721408 0.960899
0 0.721408 0.961877
0 0.72043 0.962854
0 0.719453 0.964809
0.408602 0.71652 0.967742
0.695015 0.710655 0.974585
1 0.69697 0.98436
0 1 0.983382
0 1 0.98436
0 1 0.98436
0 1 0.98436
0 1 0.985337
0 1 0.986315
0.135875 1 0.98827
0.608993 1 0.99218
1 0.999022 1
