odm/etc/Custom_LUT_hlg.cube
LUT_3D_SIZE 5
0 0 0
0.15347 0 0.00879765
0.307918 0 0.0185728
0.550342 0 0.0332356
1 0 0.0645161
0 0.144673 0
0.146628 0.142717 0
0.307918 0.132942 0
0.55132 0.0801564 0.0234604
1 0 0.0606061
0 0.2913 0
0.0742913 0.290323 0
0.294233 0.28739 0
0.549365 0.274682 0
1 0.174976 0.0439883
0 0.521017 0
0 0.520039 0
0.207234 0.519062 0
0.525904 0.514174 0
1 0.482893 0
0 1 0
0 1 0
0 1 0
0.302053 1 0
1 1 0
0 0 0.1261
0.151515 0 0.136852
0.30694 0 0.14565
0.550342 0 0.154448
1 0 0.172043
0 0.144673 0.140762
0.142717 0.142717 0.142717
0.305963 0.132942 0.147605
0.550342 0.0791789 0.154448
1 0 0.171065
0 0.2913 0.14565
0.0635386 0.290323 0.146628
0.292278 0.28739 0.148583
0.548387 0.273705 0.15347
1 0.173998 0.168133
0 0.521017 0.139785
0 0.520039 0.140762
0.204301 0.519062 0.14174
0.524927 0.514174 0.14565
1 0.482893 0.15738
0 1 0.0518084
0 1 0.0527859
0 1 0.0557185
0.29912 1 0.0625611
1 1 0.0840665
0 0 0.252199
0.143695 0 0.261975
0.304008 0 0.273705
0.548387 0 0.288368
1 0 0.309873
0 0.144673 0.268817
0.130987 0.14174 0.27175
0.302053 0.130987 0.278592
0.549365 0.0742913 0.290323
1 0 0.309873
0 0.2913 0.282502
0 0.290323 0.28348
0.286413 0.286413 0.286413
0.546432 0.272727 0.294233
1 0.172043 0.309873
0 0.521017 0.2913
0 0.520039 0.292278
0.193548 0.519062 0.293255
0.521994 0.514174 0.297165
1 0.481916 0.308895
0 1 0.28348
0 1 0.28348
0 1 0.284457
0.292278 1 0.286413
1 1 0.293255
0 0 0.451613
0.109482 0 0.458456
0.294233 0 0.471163
0.544477 0 0.490714
1 0 0.521017
0 0.14174 0.465298
0.0821114 0.13783 0.469208
0.290323 0.125122 0.478006
0.5435 0.056696 0.493646
1 0 0.521017
0 0.290323 0.484848
0 0.289345 0.485826
0.269795 0.285435 0.490714
0.539589 0.270772 0.501466
1 0.1652 0.523949
0 0.520039 0.505376
0 0.520039 0.505376
0.159335 0.518084 0.507331
0.513196 0.513196 0.513196
1 0.480938 0.528837
0 1 0.522972
0 1 0.522972
0 1 0.523949
0.269795 1 0.525904
1 1 0.533724
0 0 0.880743
0 0 0.883675
0.227761 0 0.893451
0.520039 0 0.913979
1 0 0.955034
0 0.117302 0.889541
0 0.111437 0.892473
0.217009 0.0899316 0.900293
0.518084 0 0.917889
1 0 0.956989
0 0.284457 0.908113
0 0.282502 0.910068
0.175953 0.277615 0.915934
0.509286 0.26002 0.929619
1 0.135875 0.961877
0 0.519062 0.938416
0 0.518084 0.939394
0 0.516129 0.942326
0.475073 0.510264 0.950147
1 0.475073 0.973607
0 1 0.983382
0 1 0.98436
0 1 0.985337
0.135875 1 0.98827
1 0.999022 1
