odm/etc/Custom_LUT_hlg.cube
LUT_3D_SIZE 17
0 0 0
0.0381232 0 0.00195503
0.0762463 0 0.00391007
0.11437 0 0.00684262
0.15347 0 0.00879765
0.191593 0 0.0107527
0.230694 0 0.0136852
0.268817 0 0.0156403
0.307918 0 0.0185728
0.350929 0 0.0205279
0.404692 0 0.0244379
0.470186 0 0.028348
0.550342 0 0.0332356
0.648094 0 0.0391007
0.764418 0 0.0459433
0.905181 0 0.054741
1 0 0.0645161
0 0.0351906 0
0.0361681 0.0351906 0
0.0762463 0.0332356 0
0.11437 0.026393 0.00293255
0.15347 0.00782014 0.00684262
0.191593 0 0.00977517
0.230694 0 0.0127077
0.268817 0 0.0146628
0.307918 0 0.0175953
0.350929 0 0.0195503
0.404692 0 0.0234604
0.470186 0 0.0273705
0.550342 0 0.0322581
0.648094 0 0.0381232
0.764418 0 0.0459433
0.905181 0 0.0537634
1 0 0.0645161
0 0.0723363 0
0.0185728 0.0713587 0
0.0723363 0.0713587 0
0.113392 0.0694037 0
0.15347 0.0664712 0
0.191593 0.0615836 0
0.230694 0.0537634 0.00684262
0.269795 0.0420332 0.0107527
0.307918 0.0156403 0.0136852
0.351906 0 0.0175953
0.404692 0 0.0215054
0.471163 0 0.0254154
0.55132 0 0.0312805
0.648094 0 0.0371457
0.764418 0 0.0439883
0.905181 0 0.0527859
1 0 0.0635386
0 0.108504 0
0 0.108504 0
0.0625611 0.107527 0
0.109482 0.106549 0
0.150538 0.105572 0
0.190616 0.103617 0
0.230694 0.0997067 0
0.268817 0.0948192 0
0.307918 0.0889541 0.00293255
0.351906 0.0801564 0.0107527
0.40567 0.0635386 0.0166178
0.471163 0 0.0215054
0.55132 0 0.028348
0.648094 0 0.0351906
0.765396 0 0.0420332
0.905181 0 0.0518084
1 0 0.0625611
0 0.144673 0
0 0.144673 0
0.0371457 0.144673 0
0.100684 0.143695 0
0.146628 0.142717 0
0.187683 0.14174 0
0.228739 0.139785 0
0.26784 0.136852 0
0.307918 0.132942 0
0.350929 0.128055 0
0.404692 0.120235 0
0.471163 0.106549 0.0146628
0.55132 0.0801564 0.0234604
0.648094 0 0.0312805
0.765396 0 0.0391007
0.905181 0 0.0488759
1 0 0.0606061
0 0.181818 0
0 0.180841 0
0 0.180841 0
0.085044 0.180841 0
0.13783 0.179863 0
0.182796 0.178886 0
0.224829 0.177908 0
0.265885 0.175953 0
0.305963 0.173021 0
0.349951 0.170088 0
0.404692 0.1652 0
0.471163 0.156403 0
0.55132 0.142717 0.0136852
0.648094 0.116325 0.0254154
0.765396 0.0508309 0.0351906
0.906158 0 0.0459433
1 0 0.0576735
0 0.217986 0
0 0.217986 0
0 0.217986 0
0.0557185 0.217009 0
0.125122 0.217009 0
0.174976 0.216031 0
0.219941 0.215054 0
0.261975 0.214076 0
0.30303 0.212121 0
0.347996 0.209189 0
0.403715 0.206256 0
0.470186 0.199413 0
0.55132 0.189638 0
0.648094 0.173998 0.0136852
0.765396 0.144673 0.0293255
0.906158 0.0742913 0.0410557
1 0 0.0537634
0 0.254154 0
0 0.254154 0
0 0.254154 0
0 0.254154 0
0.106549 0.253177 0
0.164223 0.253177 0
0.212121 0.252199 0
0.257087 0.251222 0
0.29912 0.250244 0
0.345064 0.248289 0
0.40176 0.245357 0
0.469208 0.240469 0
0.550342 0.233627 0
0.648094 0.220919 0
0.765396 0.201369 0.0185728
0.906158 0.164223 0.0351906
1 0.0703812 0.0498534
0 0.2913 0
0 0.2913 0
0 0.2913 0
0 0.290323 0
0.0742913 0.290323 0
0.148583 0.289345 0
0.202346 0.289345 0
0.249267 0.288368 0
0.294233 0.28739 0
0.341153 0.285435 0
0.398827 0.28348 0
0.467253 0.27957 0
0.549365 0.274682 0
0.647116 0.264907 0
0.765396 0.249267 0
0.906158 0.223851 0.0254154
1 0.174976 0.0439883
0 0.332356 0
0 0.332356 0
0 0.331378 0
0 0.331378 0
0 0.331378 0
0.123167 0.331378 0
0.186706 0.330401 0
0.238514 0.329423 0
0.285435 0.328446 0
0.335288 0.327468 0
0.393939 0.325513 0
0.464321 0.322581 0
0.54741 0.318671 0
0.646139 0.31085 0
0.764418 0.29912 0
0.906158 0.27957 0
1 0.245357 0.0342131
0 0.382209 0
0 0.382209 0
0 0.382209 0
0 0.382209 0
0 0.382209 0
0.0654936 0.382209 0
0.159335 0.381232 0
0.219941 0.381232 0
0.27175 0.380254 0
0.324536 0.379277 0
0.386119 0.377322 0
0.458456 0.375367 0
0.5435 0.372434 0
0.644184 0.366569 0
0.763441 0.356794 0
0.905181 0.342131 0
1 0.317693 0.00293255
0 0.44477 0
0 0.44477 0
0 0.44477 0
0 0.44477 0
0 0.44477 0
0 0.443793 0
0.102639 0.443793 0
0.187683 0.443793 0
0.249267 0.442815 0
0.307918 0.441838 0
0.373412 0.44086 0
0.44868 0.438905 0
0.536657 0.435973 0
0.639296 0.432063 0
0.760508 0.42522 0
0.904203 0.41349 0
1 0.394917 0
0 0.521017 0
0 0.521017 0
0 0.521017 0
0 0.520039 0
0 0.520039 0
0 0.520039 0
0 0.520039 0
0.11828 0.519062 0
0.207234 0.519062 0
0.277615 0.518084 0
0.351906 0.517107 0
0.43304 0.516129 0
0.525904 0.514174 0
0.631476 0.510264 0
0.755621 0.505376 0
0.900293 0.496579 0
1 0.482893 0
0 0.611926 0
0 0.611926 0
0 0.611926 0
0 0.611926 0
0 0.611926 0
0 0.611926 0
0 0.611926 0
0 0.610948 0
0.108504 0.610948 0
0.222874 0.610948 0
0.314761 0.609971 0
0.406647 0.608993 0
0.506354 0.607038 0
0.617791 0.604106 0
0.745846 0.600196 0
0.894428 0.59433 0
1 0.583578 0
0 0.723363 0
0 0.723363 0
0 0.722385 0
0 0.722385 0
0 0.722385 0
0 0.722385 0
0 0.722385 0
0 0.722385 0
0 0.721408 0
0.0527859 0.721408 0
0.242424 0.72043 0
0.359726 0.72043 0
0.474096 0.718475 0
0.595308 0.71652 0
0.730205 0.713587 0
0.883675 0.7087 0
1 0.70088 0
0 0.855327 0
0 0.855327 0
0 0.855327 0
0 0.855327 0
0 0.855327 0
0 0.855327 0
0 0.855327 0
0 0.855327 0
0 0.85435 0
0 0.85435 0
0 0.85435 0
0.268817 0.853372 0
0.416422 0.852395 0
0.55523 0.85044 0
0.701857 0.848485 0
0.864125 0.844575 0
1 0.83871 0
0 1 0
0 1 0
0 1 0
0 1 0
0 1 0
0 1 0
0 1 0
0 1 0
0 1 0
0 1 0
0 1 0
0 1 0
0.302053 1 0
0.485826 1 0
0.653959 1 0
0.83089 1 0
1 1 0
0 0 0.0312805
0.0371457 0 0.0332356
0.0762463 0 0.0361681
0.11437 0 0.0371457
0.15347 0 0.0391007
0.191593 0 0.0400782
0.230694 0 0.0410557
0.268817 0 0.0420332
0.307918 0 0.0439883
0.350929 0 0.0449658
0.404692 0 0.0469208
0.470186 0 0.0498534
0.550342 0 0.0527859
0.648094 0 0.056696
0.764418 0 0.0615836
0.905181 0 0.0684262
1 0 0.0772239
0 0.0351906 0.0342131
0.0351906 0.0351906 0.0351906
0.0762463 0.0322581 0.0361681
0.11437 0.026393 0.0371457
0.15347 0.0058651 0.0391007
0.191593 0 0.0400782
0.230694 0 0.0410557
0.268817 0 0.0420332
0.307918 0 0.0430108
0.350929 0 0.0449658
0.404692 0 0.0469208
0.470186 0 0.0488759
0.550342 0 0.0527859
0.648094 0 0.056696
0.764418 0 0.0615836
0.905181 0 0.0684262
1 0 0.0772239
0 0.0723363 0.0361681
0.0156403 0.0713587 0.0361681
0.0723363 0.0713587 0.0361681
0.113392 0.0694037 0.0371457
0.152493 0.0664712 0.0381232
0.191593 0.0615836 0.0391007
0.230694 0.0537634 0.0400782
0.269795 0.0420332 0.0410557
0.307918 0.0146628 0.0430108
0.350929 0 0.0439883
0.404692 0 0.0459433
0.471163 0 0.0478983
0.55132 0 0.0518084
0.648094 0 0.0557185
0.764418 0 0.0606061
0.905181 0 0.0674487
1 0 0.0762463
0 0.108504 0.0351906
0 0.108504 0.0351906
0.0615836 0.107527 0.0361681
0.109482 0.106549 0.0361681
0.150538 0.105572 0.0371457
0.190616 0.102639 0.0381232
0.229717 0.0997067 0.0391007
0.268817 0.0948192 0.0400782
0.307918 0.0889541 0.0410557
0.351906 0.0801564 0.0430108
0.40567 0.0635386 0.0439883
0.471163 0 0.0469208
0.55132 0 0.0498534
0.648094 0 0.054741
0.765396 0 0.0596285
0.905181 0 0.0664712
1 0 0.0752688
0 0.144673 0.0332356
0 0.144673 0.0332356
0.0351906 0.144673 0.0342131
0.0997067 0.143695 0.0342131
0.14565 0.142717 0.0351906
0.187683 0.14174 0.0361681
0.228739 0.139785 0.0371457
0.26784 0.136852 0.0381232
0.307918 0.132942 0.0391007
0.350929 0.128055 0.0400782
0.404692 0.120235 0.0420332
0.471163 0.106549 0.0449658
0.55132 0.0801564 0.0478983
0.648094 0 0.0527859
0.765396 0 0.0576735
0.905181 0 0.0645161
1 0 0.0733138
0 0.180841 0.030303
0 0.180841 0.030303
0 0.180841 0.030303
0.0840665 0.180841 0.0312805
0.13783 0.179863 0.0312805
0.182796 0.178886 0.0322581
0.224829 0.177908 0.0332356
0.265885 0.175953 0.0342131
0.305963 0.173021 0.0351906
0.349951 0.170088 0.0371457
0.404692 0.1652 0.0391007
0.471163 0.156403 0.0420332
0.55132 0.14174 0.0449658
0.648094 0.116325 0.0498534
0.765396 0.0508309 0.0557185
0.906158 0 0.0625611
1 0 0.0713587
0 0.217986 0.0234604
0 0.217986 0.0244379
0 0.217986 0.0244379
0.054741 0.217009 0.0244379
0.125122 0.217009 0.0254154
0.174976 0.216031 0.026393
0.219941 0.215054 0.0273705
0.261975 0.214076 0.0293255
0.30303 0.212121 0.030303
0.347996 0.209189 0.0322581
0.403715 0.206256 0.0342131
0.470186 0.199413 0.0371457
0.55132 0.189638 0.0410557
0.648094 0.173998 0.0459433
0.765396 0.144673 0.0518084
0.906158 0.0742913 0.0596285
1 0 0.0694037
0 0.254154 0.0107527
0 0.254154 0.0107527
0 0.254154 0.0117302
0 0.254154 0.0127077
0.105572 0.253177 0.0146628
0.164223 0.253177 0.0156403
0.212121 0.252199 0.0175953
0.257087 0.251222 0.0195503
0.29912 0.250244 0.0215054
0.345064 0.248289 0.0244379
0.40176 0.245357 0.0273705
0.469208 0.240469 0.030303
0.550342 0.233627 0.0351906
0.648094 0.220919 0.0410557
0.765396 0.201369 0.0478983
0.906158 0.164223 0.0557185
1 0.0703812 0.0654936
0 0.2913 0
0 0.2913 0
0 0.2913 0
0 0.290323 0
0.0742913 0.290323 0
0.148583 0.289345 0
0.202346 0.289345 0
0.249267 0.288368 0
0.293255 0.28739 0
0.341153 0.285435 0
0.398827 0.28348 0.0127077
0.467253 0.27957 0.0195503
0.549365 0.274682 0.026393
0.647116 0.264907 0.0332356
0.765396 0.249267 0.0420332
0.906158 0.223851 0.0508309
1 0.174976 0.0615836
0 0.332356 0
0 0.332356 0
0 0.331378 0
0 0.331378 0
0 0.331378 0
0.123167 0.331378 0
0.186706 0.330401 0
0.238514 0.329423 0
0.285435 0.328446 0
0.335288 0.327468 0
0.393939 0.325513 0
0.463343 0.322581 0
0.54741 0.318671 0
0.646139 0.31085 0.0205279
0.764418 0.29912 0.0322581
0.906158 0.27957 0.0439883
1 0.245357 0.0557185
0 0.382209 0
0 0.382209 0
0 0.382209 0
0 0.382209 0
0 0.382209 0
0.0645161 0.382209 0
0.159335 0.381232 0
0.219941 0.381232 0
0.27175 0.380254 0
0.324536 0.379277 0
0.386119 0.377322 0
0.458456 0.375367 0
0.5435 0.372434 0
0.644184 0.366569 0
0.763441 0.356794 0
0.905181 0.342131 0.0293255
1 0.317693 0.0469208
0 0.44477 0
0 0.44477 0
0 0.44477 0
0 0.44477 0
0 0.44477 0
0 0.443793 0
0.102639 0.443793 0
0.187683 0.443793 0
0.248289 0.442815 0
0.30694 0.441838 0
0.373412 0.44086 0
0.44868 0.438905 0
0.536657 0.435973 0
0.639296 0.432063 0
0.760508 0.42522 0
0.903226 0.41349 0
1 0.394917 0.0254154
0 0.521017 0
0 0.521017 0
0 0.521017 0
0 0.520039 0
0 0.520039 0
0 0.520039 0
0 0.520039 0
0.11828 0.519062 0
0.207234 0.519062 0
0.277615 0.518084 0
0.351906 0.517107 0
0.43304 0.516129 0
0.525904 0.514174 0
0.631476 0.510264 0
0.755621 0.505376 0
0.900293 0.496579 0
1 0.482893 0
0 0.611926 0
0 0.611926 0
0 0.611926 0
0 0.611926 0
0 0.611926 0
0 0.611926 0
0 0.611926 0
0 0.610948 0
0.107527 0.610948 0
0.222874 0.610948 0
0.314761 0.609971 0
0.406647 0.608993 0
0.506354 0.607038 0
0.617791 0.604106 0
0.745846 0.600196 0
0.894428 0.59433 0
1 0.583578 0
0 0.723363 0
0 0.723363 0
0 0.722385 0
0 0.722385 0
0 0.722385 0
0 0.722385 0
0 0.722385 0
0 0.722385 0
0 0.721408 0
0.0518084 0.721408 0
0.242424 0.72043 0
0.359726 0.72043 0
0.474096 0.718475 0
0.595308 0.71652 0
0.730205 0.713587 0
0.883675 0.7087 0
1 0.70088 0
0 0.855327 0
0 0.855327 0
0 0.855327 0
0 0.855327 0
0 0.855327 0
0 0.855327 0
0 0.855327 0
0 0.855327 0
0 0.85435 0
0 0.85435 0
0 0.85435 0
0.268817 0.853372 0
0.416422 0.852395 0
0.55523 0.85044 0
0.701857 0.848485 0
0.864125 0.844575 0
1 0.83871 0
0 1 0
0 1 0
0 1 0
0 1 0
0 1 0
0 1 0
0 1 0
0 1 0
0 1 0
0 1 0
0 1 0
0 1 0
0.302053 1 0
0.485826 1 0
0.653959 1 0
0.83089 1 0
1 1 0
0 0 0.0625611
0.0351906 0 0.0645161
0.0752688 0 0.0674487
0.11437 0 0.0703812
0.152493 0 0.0723363
0.191593 0 0.0742913
0.229717 0 0.0752688
0.268817 0 0.0772239
0.307918 0 0.0782014
0.350929 0 0.0791789
0.404692 0 0.0811339
0.470186 0 0.083089
0.550342 0 0.0860215
0.647116 0 0.0889541
0.764418 0 0.0928641
0.905181 0 0.0987292
1 0 0.104594
0 0.0351906 0.0664712
0.0322581 0.0351906 0.0674487
0.0752688 0.0322581 0.0694037
0.11437 0.0254154 0.0703812
0.152493 0 0.0723363
0.191593 0 0.0742913
0.230694 0 0.0752688
0.268817 0 0.0772239
0.307918 0 0.0782014
0.350929 0 0.0791789
0.404692 0 0.0811339
0.470186 0 0.083089
0.550342 0 0.0860215
0.647116 0 0.0889541
0.764418 0 0.0928641
0.905181 0 0.0977517
1 0 0.104594
0 0.0723363 0.0694037
0 0.0713587 0.0703812
0.0713587 0.0713587 0.0713587
0.112414 0.0694037 0.0723363
0.152493 0.0654936 0.0733138
0.191593 0.0606061 0.0742913
0.230694 0.0537634 0.0752688
0.268817 0.0410557 0.0772239
0.307918 0.0127077 0.0782014
0.350929 0 0.0791789
0.404692 0 0.0811339
0.471163 0 0.083089
0.550342 0 0.085044
0.648094 0 0.0889541
0.764418 0 0.0928641
0.905181 0 0.0977517
1 0 0.104594
0 0.108504 0.0713587
0 0.108504 0.0713587
0.0596285 0.107527 0.0723363
0.108504 0.106549 0.0733138
0.150538 0.105572 0.0733138
0.190616 0.102639 0.0742913
0.229717 0.0997067 0.0752688
0.268817 0.0948192 0.0762463
0.307918 0.0889541 0.0782014
0.350929 0.0801564 0.0791789
0.404692 0.0625611 0.0801564
0.471163 0 0.0821114
0.55132 0 0.085044
0.648094 0 0.0879765
0.764418 0 0.0918866
0.905181 0 0.0967742
1 0 0.103617
0 0.144673 0.0723363
0 0.144673 0.0723363
0.0312805 0.144673 0.0723363
0.0987292 0.143695 0.0733138
0.14565 0.142717 0.0742913
0.187683 0.14174 0.0742913
0.227761 0.139785 0.0752688
0.26784 0.136852 0.0762463
0.30694 0.132942 0.0772239
0.350929 0.128055 0.0782014
0.404692 0.120235 0.0801564
0.471163 0.106549 0.0811339
0.55132 0.0801564 0.0840665
0.648094 0 0.086999
0.765396 0 0.0909091
0.905181 0 0.0957967
1 0 0.102639
0 0.180841 0.0723363
0 0.180841 0.0723363
0 0.180841 0.0723363
0.083089 0.180841 0.0733138
0.136852 0.179863 0.0733138
0.182796 0.178886 0.0742913
0.224829 0.177908 0.0742913
0.265885 0.175953 0.0752688
0.305963 0.173021 0.0762463
0.349951 0.170088 0.0772239
0.404692 0.1652 0.0782014
0.471163 0.156403 0.0801564
0.55132 0.14174 0.083089
0.648094 0.116325 0.0860215
0.765396 0.0498534 0.0899316
0.906158 0 0.0948192
1 0 0.101662
0 0.217986 0.0713587
0 0.217986 0.0713587
0 0.217986 0.0713587
0.0527859 0.217009 0.0723363
0.124145 0.217009 0.0723363
0.173998 0.216031 0.0733138
0.218964 0.215054 0.0733138
0.261975 0.214076 0.0742913
0.30303 0.212121 0.0752688
0.347996 0.209189 0.0762463
0.402737 0.206256 0.0772239
0.470186 0.199413 0.0791789
0.55132 0.189638 0.0811339
0.648094 0.173998 0.0840665
0.765396 0.143695 0.0879765
0.906158 0.0733138 0.0928641
1 0 0.0997067
0 0.254154 0.0703812
0 0.254154 0.0703812
0 0.254154 0.0703812
0 0.254154 0.0703812
0.104594 0.253177 0.0703812
0.163245 0.253177 0.0713587
0.212121 0.252199 0.0713587
0.256109 0.251222 0.0723363
0.29912 0.250244 0.0733138
0.345064 0.248289 0.0742913
0.400782 0.245357 0.0752688
0.469208 0.240469 0.0772239
0.550342 0.233627 0.0791789
0.648094 0.220919 0.0821114
0.765396 0.201369 0.0860215
0.906158 0.164223 0.0909091
1 0.0703812 0.0977517
0 0.2913 0.0674487
0 0.2913 0.0674487
0 0.2913 0.0674487
0 0.290323 0.0684262
0.0723363 0.290323 0.0684262
0.147605 0.289345 0.0684262
0.201369 0.289345 0.0694037
0.249267 0.288368 0.0703812
0.293255 0.28739 0.0703812
0.341153 0.285435 0.0713587
0.397849 0.28348 0.0723363
0.467253 0.27957 0.0742913
0.549365 0.273705 0.0762463
0.647116 0.264907 0.0791789
0.765396 0.249267 0.083089
0.906158 0.223851 0.0889541
1 0.173998 0.0957967
0 0.332356 0.0645161
0 0.332356 0.0645161
0 0.331378 0.0645161
0 0.331378 0.0645161
0 0.331378 0.0645161
0.12219 0.331378 0.0654936
0.185728 0.330401 0.0654936
0.237537 0.329423 0.0664712
0.285435 0.328446 0.0674487
0.334311 0.327468 0.0684262
0.393939 0.325513 0.0694037
0.463343 0.322581 0.0703812
0.546432 0.318671 0.0733138
0.646139 0.31085 0.0762463
0.764418 0.29912 0.0801564
0.906158 0.27957 0.085044
1 0.245357 0.0918866
0 0.382209 0.0576735
0 0.382209 0.0576735
0 0.382209 0.058651
0 0.382209 0.058651
0 0.382209 0.058651
0.0625611 0.382209 0.0596285
0.158358 0.381232 0.0596285
0.219941 0.381232 0.0606061
0.27175 0.380254 0.0615836
0.324536 0.379277 0.0615836
0.386119 0.377322 0.0635386
0.458456 0.375367 0.0645161
0.5435 0.372434 0.0674487
0.644184 0.366569 0.0703812
0.763441 0.356794 0.0742913
0.905181 0.342131 0.0801564
1 0.316716 0.0879765
0 0.44477 0.0469208
0 0.44477 0.0469208
0 0.44477 0.0469208
0 0.44477 0.0469208
0 0.44477 0.0478983
0 0.443793 0.0478983
0.100684 0.443793 0.0488759
0.186706 0.443793 0.0498534
0.248289 0.442815 0.0498534
0.30694 0.441838 0.0518084
0.373412 0.44086 0.0527859
0.44868 0.438905 0.054741
0.536657 0.435973 0.0576735
0.639296 0.432063 0.0606061
0.760508 0.42522 0.0654936
0.903226 0.41349 0.0723363
1 0.394917 0.0801564
0 0.521017 0.0136852
0 0.521017 0.0136852
0 0.521017 0.0146628
0 0.520039 0.0156403
0 0.520039 0.0166178
0 0.520039 0.0185728
0 0.520039 0.0205279
0.116325 0.519062 0.0215054
0.206256 0.519062 0.0234604
0.277615 0.518084 0.026393
0.351906 0.517107 0.0293255
0.43304 0.516129 0.0322581
0.524927 0.514174 0.0371457
0.631476 0.510264 0.0430108
0.755621 0.505376 0.0488759
0.900293 0.496579 0.0576735
1 0.482893 0.0674487
0 0.611926 0
0 0.611926 0
0 0.611926 0
0 0.611926 0
0 0.611926 0
0 0.611926 0
0 0.611926 0
0 0.610948 0
0.106549 0.610948 0
0.221896 0.610948 0
0.313783 0.609971 0
0.406647 0.608993 0
0.506354 0.607038 0
0.617791 0.604106 0
0.745846 0.600196 0
0.894428 0.59433 0.0156403
1 0.583578 0.0400782
0 0.723363 0
0 0.723363 0
0 0.722385 0
0 0.722385 0
0 0.722385 0
0 0.722385 0
0 0.722385 0
0 0.722385 0
0 0.721408 0
0.0478983 0.721408 0
0.242424 0.72043 0
0.359726 0.72043 0
0.473118 0.718475 0
0.595308 0.71652 0
0.729228 0.713587 0
0.883675 0.7087 0
1 0.70088 0
0 0.855327 0
0 0.855327 0
0 0.855327 0
0 0.855327 0
0 0.855327 0
0 0.855327 0
0 0.855327 0
0 0.855327 0
0 0.85435 0
0 0.85435 0
0 0.85435 0
0.26784 0.853372 0
0.416422 0.852395 0
0.55523 0.85044 0
0.701857 0.848485 0
0.864125 0.844575 0
1 0.83871 0
0 1 0
0 1 0
0 1 0
0 1 0
0 1 0
0 1 0
0 1 0
0 1 0
0 1 0
0 1 0
0 1 0
0 1 0
0.301075 1 0
0.484848 1 0
0.653959 1 0
0.829912 1 0
1 1 0
0 0 0.0938416
0.0312805 0 0.0957967
0.0742913 0 0.0987292
0.113392 0 0.101662
0.152493 0 0.104594
0.190616 0 0.106549
0.229717 0 0.108504
0.268817 0 0.110459
0.30694 0 0.112414
0.350929 0 0.113392
0.404692 0 0.115347
0.470186 0 0.11828
0.550342 0 0.120235
0.647116 0 0.123167
0.764418 0 0.127077
0.905181 0 0.131965
1 0 0.13783
0 0.0351906 0.0977517
0.026393 0.0342131 0.0987292
0.0733138 0.0312805 0.100684
0.113392 0.0244379 0.102639
0.152493 0 0.105572
0.191593 0 0.107527
0.229717 0 0.108504
0.268817 0 0.110459
0.30694 0 0.112414
0.350929 0 0.113392
0.404692 0 0.115347
0.470186 0 0.11828
0.550342 0 0.120235
0.647116 0 0.123167
0.764418 0 0.127077
0.905181 0 0.131965
