odm/etc/hdr3dlut_pq_qcom_grid_out_rgb.cube
LUT_3D_SIZE 9
0 0 0
0.0527859 0 0.00293255
0.132942 0 0.00782014
0.27175 0 0.0156403
0.430108 0 0.0254154
0.56696 0 0.0342131
0.739003 0 0.0439883
0.957967 0 0.0576735
1 0 0.124145
0 0.0449658 0
0.0439883 0.0430108 0
0.13001 0.028348 0.00391007
0.270772 0 0.0146628
0.42913 0 0.0254154
0.56696 0 0.0332356
0.738025 0 0.0439883
0.957967 0 0.0576735
1 0 0.124145
0 0.11828 0
0 0.117302 0
0.117302 0.11437 0
0.266862 0.0997067 0
0.427175 0.0518084 0.0185728
0.565005 0 0.0293255
0.737048 0 0.0410557
0.956989 0 0.0557185
1 0 0.123167
0 0.246334 0
0 0.246334 0
0 0.244379 0
0.244379 0.239492 0
0.414467 0.226784 0
0.55523 0.208211 0
0.73216 0.172043 0.0224829
0.952102 0.0518084 0.0439883
1 0 0.120235
0 0.388074 0
0 0.388074 0
0 0.387097 0
0.184751 0.384164 0
0.386119 0.378299 0
0.536657 0.368524 0
0.71652 0.350929 0
0.942326 0.318671 0
1 0 0.115347
0 0.511241 0
0 0.511241 0
0 0.511241 0
0 0.508309 0
0.344086 0.503421 0
0.508309 0.497556 0
0.697947 0.485826 0
0.928641 0.463343 0
1 0 0.107527
0 0.667644 0
0 0.667644 0
0 0.666667 0
0 0.664712 0
0.251222 0.661779 0
0.456501 0.656892 0
0.663734 0.649071 0
0.904203 0.633431 0
1 0 0.0928641
0 0.86608 0
0 0.86608 0
0 0.86608 0
0 0.864125 0
0 0.86217 0
0.343109 0.85826 0
0.597263 0.852395 0
0.861193 0.841642 0
1 0.392962 0.0654936
0 1 0
0 1 0
0 1 0
0 1 0
0 1 0
0 1 0
0 1 0
0 1 0
1 1 0
0 0 0.0478983
0.0508309 0 0.0459433
0.131965 0 0.0420332
0.27175 0 0.0430108
0.430108 0 0.0469208
0.56696 0 0.0518084
0.738025 0 0.058651
0.957967 0 0.0694037
1 0 0.127077
0 0.0439883 0.0430108
0.0420332 0.0420332 0.0420332
0.13001 0.028348 0.0410557
0.270772 0 0.0430108
0.42913 0 0.0469208
0.56696 0 0.0518084
0.738025 0 0.058651
0.957967 0 0.0684262
1 0 0.127077
0 0.11828 0.0371457
0 0.117302 0.0371457
0.116325 0.11437 0.0381232
0.265885 0.0997067 0.0400782
0.427175 0.0518084 0.0439883
0.565005 0 0.0488759
0.737048 0 0.056696
0.956989 0 0.0674487
1 0 0.1261
0 0.246334 0.0127077
0 0.246334 0.0136852
0 0.244379 0.0146628
0.244379 0.239492 0.0205279
0.414467 0.226784 0.028348
0.55523 0.208211 0.0361681
0.73216 0.172043 0.0459433
0.952102 0.0518084 0.058651
1 0 0.123167
0 0.388074 0
0 0.388074 0
0 0.387097 0
0.184751 0.384164 0
0.386119 0.378299 0
0.535679 0.368524 0
0.71652 0.350929 0
0.942326 0.317693 0.0322581
1 0 0.117302
0 0.511241 0
0 0.511241 0
0 0.511241 0
0 0.508309 0
0.344086 0.503421 0
0.508309 0.497556 0
0.697947 0.485826 0
0.928641 0.463343 0
1 0 0.110459
0 0.667644 0
0 0.667644 0
0 0.666667 0
0 0.664712 0
0.251222 0.661779 0
0.456501 0.656892 0
0.663734 0.649071 0
0.904203 0.633431 0
1 0 0.0967742
0 0.86608 0
0 0.86608 0
0 0.86608 0
0 0.864125 0
0 0.86217 0
0.342131 0.85826 0
0.597263 0.852395 0
0.861193 0.841642 0
1 0.392962 0.0694037
0 1 0
0 1 0
0 1 0
0 1 0
0 1 0
0 1 0
0 1 0
0 1 0
1 1 0
0 0 0.12219
0.0371457 0 0.120235
0.129032 0 0.116325
0.270772 0 0.115347
0.42913 0 0.117302
0.56696 0 0.11828
0.738025 0 0.121212
0.957967 0 0.1261
1 0 0.147605
0 0.0420332 0.11828
0.030303 0.0400782 0.117302
0.127077 0.0254154 0.115347
0.269795 0 0.115347
0.42913 0 0.116325
0.565982 0 0.11828
0.738025 0 0.121212
0.957967 0 0.1261
1 0 0.146628
0 0.117302 0.113392
0 0.117302 0.113392
0.113392 0.113392 0.113392
0.264907 0.0987292 0.11437
0.426197 0.0508309 0.116325
0.564027 0 0.117302
0.737048 0 0.120235
0.956989 0 0.125122
1 0 0.146628
0 0.245357 0.109482
0 0.245357 0.109482
0 0.244379 0.109482
0.243402 0.239492 0.110459
0.414467 0.226784 0.111437
0.554252 0.208211 0.113392
0.73216 0.172043 0.116325
0.952102 0.0508309 0.121212
1 0 0.143695
0 0.388074 0.0997067
0 0.388074 0.0997067
0 0.387097 0.0997067
0.182796 0.384164 0.100684
0.386119 0.377322 0.102639
0.535679 0.368524 0.104594
0.71652 0.350929 0.107527
0.942326 0.317693 0.112414
1 0 0.138807
0 0.511241 0.085044
0 0.511241 0.085044
0 0.511241 0.085044
0 0.508309 0.0860215
0.343109 0.503421 0.0879765
0.508309 0.497556 0.0899316
0.697947 0.485826 0.0938416
0.927664 0.463343 0.0997067
1 0 0.131965
0 0.667644 0.0449658
0 0.667644 0.0449658
0 0.666667 0.0459433
0 0.664712 0.0469208
0.250244 0.661779 0.0508309
0.455523 0.656892 0.054741
0.662757 0.648094 0.0615836
0.904203 0.633431 0.0713587
1 0 0.120235
0 0.86608 0
0 0.86608 0
0 0.86608 0
0 0.864125 0
0 0.86217 0
0.342131 0.85826 0
0.597263 0.852395 0
0.861193 0.841642 0
1 0.392962 0.0997067
0 1 0
0 1 0
0 1 0
0 1 0
0 1 0
0 1 0
0 1 0
0 1 0
1 1 0
0 0 0.240469
0 0 0.240469
0.116325 0 0.239492
0.265885 0 0.239492
0.427175 0 0.240469
0.565005 0 0.241447
0.737048 0 0.242424
0.956989 0 0.244379
1 0 0.213099
0 0.0312805 0.240469
0 0.030303 0.240469
0.11437 0 0.239492
0.265885 0 0.239492
0.426197 0 0.240469
0.564027 0 0.241447
0.737048 0 0.242424
0.956012 0 0.244379
1 0 0.213099
0 0.115347 0.238514
0 0.11437 0.238514
0.0997067 0.111437 0.239492
0.260997 0.0967742 0.239492
0.424242 0.0449658 0.240469
0.562072 0 0.240469
0.73607 0 0.242424
0.956012 0 0.243402
1 0 0.213099
0 0.245357 0.237537
0 0.245357 0.237537
0 0.243402 0.237537
0.238514 0.238514 0.238514
0.411535 0.225806 0.238514
0.552297 0.207234 0.238514
0.730205 0.170088 0.240469
0.951124 0.0449658 0.242424
1 0 0.210166
0 0.387097 0.233627
0 0.387097 0.233627
0 0.387097 0.233627
0.174976 0.384164 0.234604
0.383187 0.377322 0.234604
0.533724 0.367546 0.235582
0.714565 0.349951 0.236559
0.941349 0.317693 0.238514
1 0 0.206256
0 0.511241 0.228739
0 0.511241 0.228739
0 0.510264 0.228739
0 0.508309 0.228739
0.340176 0.503421 0.229717
0.506354 0.496579 0.230694
0.695992 0.484848 0.231672
0.926686 0.463343 0.233627
1 0 0.200391
0 0.666667 0.219941
0 0.666667 0.219941
0 0.666667 0.219941
0 0.664712 0.219941
0.245357 0.660802 0.220919
0.453568 0.656892 0.220919
0.661779 0.648094 0.222874
0.903226 0.633431 0.224829
1 0 0.190616
0 0.86608 0.202346
0 0.86608 0.202346
0 0.865103 0.202346
0 0.864125 0.203324
0 0.861193 0.203324
0.338221 0.85826 0.204301
0.595308 0.852395 0.206256
0.859238 0.841642 0.208211
1 0.392962 0.173998
0 1 0
0 1 0
0 1 0
0 1 0
0 1 0
0 1 0
0 1 0
0 1 0
1 1 0
0 0 0.378299
0 0 0.378299
0.083089 0 0.378299
0.256109 0 0.378299
0.42131 0 0.379277
0.560117 0 0.379277
0.734115 0 0.380254
0.954057 0 0.381232
1 0 0.304985
0 0 0.378299
0 0 0.378299
0.0811339 0 0.378299
0.255132 0 0.378299
0.42131 0 0.379277
0.560117 0 0.379277
0.734115 0 0.380254
0.954057 0 0.381232
1 0 0.304985
0 0.110459 0.377322
0 0.109482 0.377322
0.056696 0.106549 0.377322
0.250244 0.0909091 0.378299
0.418377 0.0254154 0.379277
0.558162 0 0.379277
0.733138 0 0.380254
0.953079 0 0.381232
1 0 0.304985
0 0.243402 0.378299
0 0.243402 0.378299
0 0.242424 0.378299
0.226784 0.236559 0.378299
0.404692 0.222874 0.378299
0.548387 0.204301 0.378299
0.727273 0.167155 0.379277
0.949169 0.0254154 0.380254
1 0 0.302053
0 0.386119 0.375367
0 0.386119 0.375367
0 0.386119 0.375367
0.15738 0.383187 0.375367
0.376344 0.376344 0.376344
0.528837 0.366569 0.376344
0.711632 0.348974 0.376344
0.938416 0.315738 0.378299
1 0 0.297165
0 0.510264 0.372434
0 0.510264 0.372434
0 0.509286 0.372434
0 0.507331 0.372434
0.332356 0.502444 0.372434
0.501466 0.496579 0.373412
0.69306 0.483871 0.373412
0.924731 0.462366 0.374389
1 0 0.2913
0 0.666667 0.367546
0 0.666667 0.367546
0 0.665689 0.367546
0 0.663734 0.367546
0.233627 0.660802 0.367546
0.447703 0.655914 0.367546
0.657869 0.648094 0.368524
0.901271 0.632454 0.370479
1 0 0.281525
0 0.865103 0.358749
0 0.865103 0.358749
0 0.865103 0.358749
0 0.864125 0.358749
0 0.861193 0.358749
0.330401 0.85826 0.359726
0.591398 0.851417 0.359726
0.857283 0.841642 0.361681
1 0.391984 0.265885
0 1 0
0 1 0
0 1 0
0 1 0
0 1 0
0 1 0
0 1 0
0 1 0
1 1 0.0410557
0 0 0.498534
0 0 0.498534
0 0 0.498534
0.241447 0 0.499511
0.41349 0 0.500489
0.554252 0 0.499511
0.731183 0 0.500489
0.952102 0 0.500489
1 0 0.390029
0 0 0.498534
0 0 0.498534
0 0 0.498534
0.241447 0 0.499511
0.41349 0 0.500489
0.554252 0 0.499511
0.731183 0 0.500489
0.952102 0 0.500489
1 0 0.390029
0 0.103617 0.498534
0 0.103617 0.498534
0 0.0997067 0.498534
0.235582 0.0821114 0.499511
0.410557 0 0.499511
0.552297 0 0.499511
0.729228 0 0.500489
0.951124 0 0.500489
1 0 0.389052
0 0.240469 0.498534
0 0.240469 0.498534
0 0.239492 0.498534
0.209189 0.233627 0.498534
0.396872 0.219941 0.498534
0.5435 0.201369 0.498534
0.722385 0.163245 0.499511
0.946237 0 0.499511
1 0 0.387097
0 0.385142 0.496579
0 0.385142 0.496579
0 0.384164 0.496579
0.13001 0.381232 0.497556
0.367546 0.374389 0.497556
0.522972 0.364614 0.496579
0.707722 0.347019 0.497556
0.935484 0.313783 0.498534
1 0 0.381232
0 0.509286 0.493646
0 0.509286 0.493646
0 0.508309 0.494624
0 0.506354 0.494624
0.322581 0.501466 0.494624
0.495601 0.494624 0.494624
0.688172 0.482893 0.495601
0.921799 0.461388 0.495601
1 0 0.374389
0 0.665689 0.490714
0 0.665689 0.490714
0 0.664712 0.490714
0 0.663734 0.490714
0.217986 0.659824 0.490714
0.44086 0.654936 0.490714
0.653959 0.647116 0.491691
0.898338 0.632454 0.492669
1 0 0.363636
0 0.865103 0.484848
0 0.865103 0.484848
0 0.864125 0.484848
0 0.863148 0.484848
0 0.860215 0.484848
0.320626 0.857283 0.484848
0.58651 0.851417 0.485826
0.85435 0.840665 0.486804
1 0.391007 0.347019
0 1 0.159335
0 1 0.159335
0 1 0.159335
0 1 0.159335
0 1 0.159335
0 1 0.159335
0 1 0.159335
0 1 0.159335
1 1 0.155425
0 0 0.651026
0 0 0.651026
0 0 0.651026
0.214076 0 0.652004
0.399805 0 0.652004
0.544477 0 0.651026
0.72434 0 0.652981
0.947214 0 0.652004
1 0 0.498534
0 0 0.651026
0 0 0.651026
0 0 0.652004
0.213099 0 0.652004
0.398827 0 0.652004
0.544477 0 0.651026
0.72434 0 0.652981
0.947214 0 0.652004
1 0 0.498534
0 0.0909091 0.652004
0 0.0899316 0.652004
0 0.0860215 0.652004
0.207234 0.0635386 0.652004
0.395894 0 0.651026
0.541544 0 0.651026
0.722385 0 0.652004
0.946237 0 0.652004
1 0 0.498534
0 0.235582 0.651026
0 0.235582 0.651026
0 0.234604 0.651026
0.174976 0.228739 0.650049
0.382209 0.215054 0.650049
0.533724 0.196481 0.651026
0.714565 0.155425 0.651026
0.941349 0 0.652004
1 0 0.495601
0 0.383187 0.650049
0 0.383187 0.650049
0 0.382209 0.650049
0.0420332 0.379277 0.650049
0.350929 0.371457 0.650049
0.512219 0.361681 0.649071
0.70088 0.344086 0.650049
0.930596 0.31085 0.650049
1 0 0.488759
0 0.507331 0.647116
0 0.507331 0.647116
0 0.507331 0.647116
0 0.504399 0.648094
0.30303 0.499511 0.648094
0.483871 0.492669 0.648094
0.681329 0.480938 0.648094
0.916911 0.459433 0.649071
1 0 0.480938
0 0.663734 0.644184
0 0.663734 0.644184
0 0.663734 0.644184
0 0.661779 0.644184
0.185728 0.658847 0.645161
0.428153 0.653959 0.645161
0.646139 0.645161 0.645161
0.892473 0.630499 0.646139
1 0 0.469208
0 0.864125 0.640274
0 0.864125 0.640274
0 0.863148 0.640274
0 0.86217 0.640274
0 0.860215 0.640274
0.301075 0.856305 0.641251
0.577713 0.85044 0.641251
0.848485 0.839687 0.642229
1 0.389052 0.44868
0 1 0.26393
0 1 0.26393
0 1 0.26393
0 1 0.262952
0 1 0.262952
0 1 0.262952
0 1 0.261975
0 1 0.260997
1 1 0.241447
0 0 0.845552
0 0 0.845552
0 0 0.845552
0.150538 0 0.844575
0.373412 0 0.844575
0.527859 0 0.845552
0.710655 0 0.845552
0.938416 0 0.845552
1 0 0.638319
0 0 0.845552
0 0 0.845552
0 0 0.845552
0.14956 0 0.844575
0.372434 0 0.844575
0.527859 0 0.845552
0.710655 0 0.845552
0.938416 0 0.845552
1 0 0.637341
0 0.058651 0.844575
0 0.058651 0.844575
0 0.0508309 0.844575
0.139785 0 0.844575
0.369501 0 0.843597
0.525904 0 0.845552
0.709677 0 0.844575
0.937439 0 0.845552
1 0 0.637341
0 0.227761 0.843597
0 0.227761 0.843597
0 0.225806 0.843597
0.0772239 0.219941 0.843597
0.354839 0.206256 0.845552
0.515152 0.185728 0.844575
0.702835 0.14174 0.844575
0.932551 0 0.844575
1 0 0.633431
0 0.378299 0.843597
0 0.378299 0.843597
0 0.377322 0.843597
0 0.374389 0.843597
0.319648 0.366569 0.84262
0.493646 0.356794 0.843597
0.688172 0.339198 0.843597
0.920821 0.304985 0.843597
1 0 0.626588
0 0.504399 0.841642
0 0.504399 0.841642
0 0.504399 0.841642
0 0.501466 0.84262
0.265885 0.496579 0.84262
0.463343 0.489736 0.841642
0.667644 0.477028 0.841642
0.908113 0.455523 0.84262
1 0 0.616813
0 0.661779 0.839687
0 0.661779 0.839687
0 0.661779 0.839687
0 0.659824 0.839687
0.101662 0.655914 0.839687
0.404692 0.652004 0.839687
0.631476 0.643206 0.840665
0.882698 0.628543 0.840665
1 0 0.602151
0 0.86217 0.836755
0 0.86217 0.836755
0 0.86217 0.836755
0 0.861193 0.836755
0 0.85826 0.836755
0.26393 0.85435 0.836755
0.561095 0.848485 0.837732
0.837732 0.837732 0.837732
1 0.385142 0.57869
0 1 0.374389
0 1 0.374389
0 1 0.373412
0 1 0.373412
0 1 0.373412
0 1 0.372434
0 1 0.371457
0 1 0.369501
1 1 0.337243
0 0 1
0 0 1
0 0 1
0 0 1
0 0 1
0 0 1
0.353861 0 1
0.725318 0 1
1 0 1
0 0 1
0 0 1
0 0 1
0 0 1
0 0 1
0 0 1
0.353861 0 1
0.725318 0 1
1 0 1
0 0 1
0 0 1
0 0 1
0 0 1
0 0 1
0 0 1
0.349951 0 1
0.721408 0 1
1 0 1
0 0 1
0 0 1
0 0 1
0 0 1
0 0 1
0 0 1
0.334311 0 1
0.706745 0 1
1 0 1
0 0.266862 1
0 0.265885 1
0 0.264907 1
0 0.26002 1
0 0.249267 1
0 0.232649 1
0.293255 0.199413 1
0.677419 0.119257 1
1 0 1
0 0.43304 1
0 0.432063 1
0 0.431085 1
0 0.427175 1
0 0.4174 1
0 0.404692 1
0.226784 0.384164 1
0.640274 0.347019 1
1 0 1
0 0.579668 1
0 0.579668 1
0 0.57869 1
0 0.575758 1
0 0.567937 1
0 0.557185 1
0 0.540567 1
0.580645 0.512219 1
1 0 1
0 0.723363 1
0 0.723363 1
0 0.722385 1
0 0.719453 1
0 0.713587 1
0 0.70479 1
0 0.691105 1
0.486804 0.666667 1
1 0.316716 1
0 1 1
0 1 1
0 1 1
0 1 1
0 1 1
0 1 1
0 1 1
0 1 1
0.999022 0.999022 0.999022
