odm/etc/hdr3dlut_pq_qcom_grid_out_rgb.cube
LUT_3D_SIZE 5
0 0 0
0.132942 0 0.00782014
0.430108 0 0.0254154
0.739003 0 0.0439883
1 0 0.124145
0 0.11828 0
0.117302 0.11437 0
0.427175 0.0518084 0.0185728
0.737048 0 0.0410557
1 0 0.123167
0 0.388074 0
0 0.387097 0
0.386119 0.378299 0
0.71652 0.350929 0
1 0 0.115347
0 0.667644 0
0 0.666667 0
0.251222 0.661779 0
0.663734 0.649071 0
1 0 0.0928641
0 1 0
0 1 0
0 1 0
0 1 0
1 1 0
0 0 0.12219
0.129032 0 0.116325
0.42913 0 0.117302
0.738025 0 0.121212
1 0 0.147605
0 0.117302 0.113392
0.113392 0.113392 0.113392
0.426197 0.0508309 0.116325
0.737048 0 0.120235
1 0 0.146628
0 0.388074 0.0997067
0 0.387097 0.0997067
0.386119 0.377322 0.102639
0.71652 0.350929 0.107527
1 0 0.138807
0 0.667644 0.0449658
0 0.666667 0.0459433
0.250244 0.661779 0.0508309
0.662757 0.648094 0.0615836
1 0 0.120235
0 1 0
0 1 0
0 1 0
0 1 0
1 1 0
0 0 0.378299
0.083089 0 0.378299
0.42131 0 0.379277
0.734115 0 0.380254
1 0 0.304985
0 0.110459 0.377322
0.056696 0.106549 0.377322
0.418377 0.0254154 0.379277
0.733138 0 0.380254
1 0 0.304985
0 0.386119 0.375367
0 0.386119 0.375367
0.376344 0.376344 0.376344
0.711632 0.348974 0.376344
1 0 0.297165
0 0.666667 0.367546
0 0.665689 0.367546
0.233627 0.660802 0.367546
0.657869 0.648094 0.368524
1 0 0.281525
0 1 0
0 1 0
0 1 0
0 1 0
1 1 0.0410557
0 0 0.651026
0 0 0.651026
0.399805 0 0.652004
0.72434 0 0.652981
1 0 0.498534
0 0.0909091 0.652004
0 0.0860215 0.652004
0.395894 0 0.651026
0.722385 0 0.652004
1 0 0.498534
0 0.383187 0.650049
0 0.382209 0.650049
0.350929 0.371457 0.650049
0.70088 0.344086 0.650049
1 0 0.488759
0 0.663734 0.644184
0 0.663734 0.644184
0.185728 0.658847 0.645161
0.646139 0.645161 0.645161
1 0 0.469208
0 1 0.26393
0 1 0.26393
0 1 0.262952
0 1 0.261975
1 1 0.241447
0 0 1
0 0 1
0 0 1
0.353861 0 1
1 0 1
0 0 1
0 0 1
0 0 1
0.349951 0 1
1 0 1
0 0.266862 1
0 0.264907 1
0 0.249267 1
0.293255 0.199413 1
1 0 1
0 0.579668 1
0 0.57869 1
0 0.567937 1
0 0.540567 1
1 0 1
0 1 1
0 1 1
0 1 1
0 1 1
0.999022 0.999022 0.999022
