odm/etc/hdr3dlut_pq_qcom_grid_out_rgb.cube
LUT_3D_SIZE 17
0 0 0
0.0244379 0 0.00195503
0.0527859 0 0.00293255
0.0860215 0 0.00488759
0.132942 0 0.00782014
0.179863 0 0.0107527
0.27175 0 0.0156403
0.372434 0 0.0224829
0.430108 0 0.0254154
0.494624 0 0.0293255
0.56696 0 0.0342131
0.648094 0 0.0391007
0.739003 0 0.0439883
0.84262 0 0.0508309
0.957967 0 0.0576735
1 0 0.0997067
1 0 0.124145
0 0.0215054 0
0.0215054 0.0215054 0
0.0508309 0.0175953 0.000977517
0.0840665 0 0.00391007
0.131965 0 0.00684262
0.179863 0 0.00977517
0.27175 0 0.0156403
0.372434 0 0.0224829
0.430108 0 0.0254154
0.494624 0 0.0293255
0.56696 0 0.0342131
0.648094 0 0.0391007
0.738025 0 0.0439883
0.84262 0 0.0508309
0.957967 0 0.0576735
1 0 0.0997067
1 0 0.124145
0 0.0449658 0
0 0.0449658 0
0.0439883 0.0430108 0
0.0811339 0.0391007 0
0.13001 0.028348 0.00391007
0.178886 0 0.00879765
0.270772 0 0.0146628
0.371457 0 0.0215054
0.42913 0 0.0254154
0.494624 0 0.0293255
0.56696 0 0.0332356
0.647116 0 0.0381232
0.738025 0 0.0439883
0.84262 0 0.0508309
0.957967 0 0.0576735
1 0 0.0987292
1 0 0.124145
0 0.0742913 0
0 0.0742913 0
0.0273705 0.0733138 0
0.0733138 0.0713587 0
0.1261 0.0674487 0
0.176931 0.0596285 0
0.269795 0.028348 0.0117302
0.371457 0 0.0195503
0.42913 0 0.0234604
0.493646 0 0.0273705
0.565982 0 0.0322581
0.647116 0 0.0371457
0.738025 0 0.0430108
0.84262 0 0.0498534
0.956989 0 0.056696
1 0 0.0987292
1 0 0.124145
0 0.11828 0
0 0.11828 0
0 0.117302 0
0.0527859 0.116325 0
0.117302 0.11437 0
0.171065 0.110459 0
0.266862 0.0997067 0
0.368524 0.0772239 0.0127077
0.427175 0.0518084 0.0185728
0.492669 0 0.0234604
0.565005 0 0.0293255
0.645161 0 0.0351906
0.737048 0 0.0410557
0.841642 0 0.0478983
0.956989 0 0.0557185
1 0 0.0977517
1 0 0.123167
0 0.162268 0
0 0.162268 0
0 0.162268 0
0 0.16129 0
0.101662 0.160313 0
0.16129 0.15738 0
0.260997 0.150538 0
0.365591 0.13783 0
0.424242 0.128055 0
0.489736 0.112414 0.0156403
0.562072 0.0860215 0.0234604
0.643206 0 0.030303
0.73607 0 0.0371457
0.839687 0 0.0449658
0.956012 0 0.0527859
1 0 0.0967742
1 0 0.123167
0 0.246334 0
0 0.246334 0
0 0.246334 0
0 0.245357 0
0 0.244379 0
0.129032 0.243402 0
0.244379 0.239492 0
0.354839 0.232649 0
0.414467 0.226784 0
0.480938 0.218964 0
0.55523 0.208211 0
0.638319 0.193548 0
0.73216 0.172043 0.0224829
0.8348 0.135875 0.0342131
0.952102 0.0518084 0.0439883
1 0 0.0928641
1 0 0.120235
0 0.337243 0
0 0.337243 0
0 0.337243 0
0 0.336266 0
0 0.336266 0
0 0.335288 0
0.212121 0.332356 0
0.334311 0.327468 0
0.397849 0.323558 0
0.468231 0.318671 0
0.544477 0.312805 0
0.629521 0.304008 0
0.723363 0.2913 0
0.827957 0.273705 0
0.947214 0.249267 0.0224829
1 0 0.0860215
1 0 0.117302
0 0.388074 0
0 0.388074 0
0 0.388074 0
0 0.388074 0
0 0.387097 0
0 0.386119 0
0.184751 0.384164 0
0.319648 0.380254 0
0.386119 0.378299 0
0.458456 0.374389 0
0.536657 0.368524 0
0.621701 0.360704 0
0.71652 0.350929 0
0.823069 0.337243 0
0.942326 0.318671 0
1 0 0.0811339
1 0 0.115347
0 0.446725 0
0 0.446725 0
0 0.446725 0
0 0.446725 0
0 0.446725 0
0 0.445748 0
0.136852 0.443793 0
0.297165 0.439883 0
0.368524 0.437928 0
0.443793 0.434018 0
0.523949 0.42913 0
0.611926 0.423265 0
0.7087 0.415445 0
0.816227 0.404692 0
0.936461 0.389052 0
1 0.184751 0.0733138
1 0 0.111437
0 0.511241 0
0 0.511241 0
0 0.511241 0
0 0.511241 0
0 0.511241 0
0 0.510264 0
0 0.508309 0
0.264907 0.505376 0
0.344086 0.503421 0
0.424242 0.501466 0
0.508309 0.497556 0
0.599218 0.492669 0
0.697947 0.485826 0
0.806452 0.476051 0
0.928641 0.463343 0
1 0.323558 0.0606061
1 0 0.107527
0 0.585533 0
0 0.585533 0
0 0.585533 0
0 0.584555 0
0 0.584555 0
0 0.584555 0
0 0.5826 0
0.213099 0.580645 0
0.308895 0.57869 0
0.396872 0.575758 0
0.486804 0.572825 0
0.581623 0.567937 0
0.683284 0.562072 0
0.794721 0.55523 0
0.917889 0.544477 0
1 0.431085 0.0351906
1 0 0.101662
0 0.667644 0
0 0.667644 0
0 0.667644 0
0 0.666667 0
0 0.666667 0
0 0.666667 0
0 0.664712 0
0.0977517 0.662757 0
0.251222 0.661779 0
0.356794 0.659824 0
0.456501 0.656892 0
0.557185 0.652981 0
0.663734 0.649071 0
0.778104 0.642229 0
0.904203 0.633431 0
1 0.522972 0
1 0 0.0928641
0 0.760508 0
0 0.760508 0
0 0.760508 0
0 0.760508 0
0 0.759531 0
0 0.759531 0
0 0.758553 0
0 0.756598 0
0.135875 0.755621 0
0.29521 0.753666 0
0.412512 0.751711 0
0.522972 0.748778 0
0.636364 0.744868 0
0.755621 0.739003 0
0.886608 0.73216 0
1 0.608993 0
1 0.258065 0.0821114
0 0.86608 0
0 0.86608 0
0 0.86608 0
0 0.86608 0
0 0.86608 0
0 0.865103 0
0 0.864125 0
0 0.863148 0
0 0.86217 0
0.172043 0.860215 0
0.343109 0.85826 0
0.473118 0.856305 0
0.597263 0.852395 0
0.725318 0.848485 0
0.861193 0.841642 0
1 0.690127 0
1 0.392962 0.0654936
0 1 0
0 1 0
0 1 0
0 1 0
0 1 0
0 1 0
0 1 0
0 1 0
0 1 0
0 1 0
0 1 0
0 1 0
0 1 0
0.199413 1 0
0.411535 1 0
1 0.989247 0
1 0.788856 0
0 1 0
0 1 0
0 1 0
0 1 0
0 1 0
0 1 0
0 1 0
0 1 0
0 1 0
0 1 0
0 1 0
0 1 0
0 1 0
0 1 0
0 1 0
0.489736 1 0
1 1 0
0 0 0.0215054
0.0244379 0 0.0215054
0.0527859 0 0.0205279
0.085044 0 0.0195503
0.132942 0 0.0195503
0.179863 0 0.0205279
0.27175 0 0.0234604
0.372434 0 0.028348
0.430108 0 0.0312805
0.494624 0 0.0342131
0.56696 0 0.0381232
0.648094 0 0.0420332
0.739003 0 0.0469208
0.84262 0 0.0527859
0.957967 0 0.0596285
1 0 0.100684
1 0 0.124145
0 0.0215054 0.0215054
0.0205279 0.0205279 0.0205279
0.0508309 0.0166178 0.0205279
0.0840665 0 0.0195503
0.131965 0 0.0195503
0.179863 0 0.0205279
0.27175 0 0.0234604
0.372434 0 0.028348
0.430108 0 0.030303
0.494624 0 0.0342131
0.56696 0 0.0381232
0.648094 0 0.0420332
0.738025 0 0.0469208
0.84262 0 0.0527859
0.957967 0 0.0596285
1 0 0.100684
1 0 0.124145
0 0.0449658 0.0185728
0 0.0439883 0.0185728
0.0439883 0.0430108 0.0185728
0.0811339 0.0391007 0.0185728
0.13001 0.028348 0.0185728
0.178886 0 0.0195503
0.270772 0 0.0234604
0.371457 0 0.0273705
0.42913 0 0.030303
0.494624 0 0.0332356
0.56696 0 0.0371457
0.647116 0 0.0420332
0.738025 0 0.0469208
0.84262 0 0.0527859
0.957967 0 0.0596285
1 0 0.100684
1 0 0.124145
0 0.0742913 0.0146628
0 0.0742913 0.0146628
0.0273705 0.0733138 0.0156403
0.0733138 0.0713587 0.0156403
0.1261 0.0674487 0.0166178
0.176931 0.0596285 0.0175953
0.269795 0.028348 0.0215054
0.370479 0 0.026393
0.42913 0 0.0293255
0.493646 0 0.0322581
0.565982 0 0.0361681
0.647116 0 0.0410557
0.738025 0 0.0459433
0.84262 0 0.0527859
0.956989 0 0.058651
1 0 0.0997067
1 0 0.124145
0 0.11828 0
0 0.11828 0
0 0.117302 0
0.0527859 0.116325 0.00293255
0.117302 0.11437 0.00684262
0.171065 0.110459 0.00977517
0.266862 0.0997067 0.0156403
0.368524 0.0772239 0.0215054
0.427175 0.0518084 0.0254154
0.492669 0 0.0293255
0.565005 0 0.0342131
0.645161 0 0.0391007
0.737048 0 0.0439883
0.841642 0 0.0508309
0.956989 0 0.0576735
1 0 0.0997067
1 0 0.124145
0 0.162268 0
0 0.162268 0
0 0.162268 0
0 0.16129 0
0.100684 0.160313 0
0.16129 0.15738 0
0.260997 0.150538 0
0.365591 0.13783 0.0117302
0.424242 0.128055 0.0175953
0.489736 0.112414 0.0234604
0.562072 0.0860215 0.0293255
0.643206 0 0.0342131
0.73607 0 0.0410557
0.839687 0 0.0478983
0.956012 0 0.054741
1 0 0.0977517
1 0 0.123167
0 0.246334 0
0 0.246334 0
0 0.246334 0
0 0.245357 0
0 0.244379 0
0.128055 0.243402 0
0.244379 0.239492 0
0.354839 0.232649 0
0.414467 0.226784 0
0.480938 0.218964 0
0.55523 0.208211 0
0.638319 0.193548 0.0166178
0.73216 0.172043 0.028348
0.8348 0.135875 0.0381232
0.952102 0.0518084 0.0469208
1 0 0.0938416
1 0 0.121212
0 0.337243 0
0 0.337243 0
0 0.337243 0
0 0.336266 0
0 0.336266 0
0 0.335288 0
0.212121 0.332356 0
0.334311 0.327468 0
0.397849 0.323558 0
0.468231 0.318671 0
0.544477 0.312805 0
0.629521 0.304008 0
0.723363 0.2913 0
0.827957 0.273705 0
0.947214 0.249267 0.028348
1 0 0.0879765
1 0 0.11828
0 0.388074 0
0 0.388074 0
0 0.388074 0
0 0.388074 0
0 0.387097 0
0 0.386119 0
0.184751 0.384164 0
0.319648 0.380254 0
0.386119 0.378299 0
0.458456 0.374389 0
0.536657 0.368524 0
0.621701 0.360704 0
0.71652 0.350929 0
0.823069 0.337243 0
0.942326 0.318671 0
1 0 0.0821114
1 0 0.115347
0 0.446725 0
0 0.446725 0
0 0.446725 0
0 0.446725 0
0 0.446725 0
0 0.445748 0
0.136852 0.443793 0
0.297165 0.439883 0
0.368524 0.437928 0
0.443793 0.434018 0
0.523949 0.42913 0
0.611926 0.423265 0
0.7087 0.415445 0
0.816227 0.404692 0
0.936461 0.389052 0
1 0.184751 0.0742913
1 0 0.112414
0 0.511241 0
0 0.511241 0
0 0.511241 0
0 0.511241 0
0 0.511241 0
0 0.510264 0
0 0.508309 0
0.264907 0.505376 0
0.344086 0.503421 0
0.424242 0.501466 0
0.508309 0.497556 0
0.599218 0.492669 0
0.697947 0.485826 0
0.806452 0.476051 0
0.928641 0.463343 0
1 0.323558 0.0625611
1 0 0.107527
0 0.585533 0
0 0.585533 0
0 0.585533 0
0 0.584555 0
0 0.584555 0
0 0.584555 0
0 0.5826 0
0.213099 0.580645 0
0.308895 0.57869 0
0.396872 0.575758 0
0.486804 0.572825 0
0.581623 0.567937 0
0.683284 0.562072 0
0.794721 0.55523 0
0.917889 0.544477 0
1 0.431085 0.0391007
1 0 0.101662
0 0.667644 0
0 0.667644 0
0 0.667644 0
0 0.666667 0
0 0.666667 0
0 0.666667 0
0 0.664712 0
0.0977517 0.662757 0
0.251222 0.661779 0
0.356794 0.659824 0
0.456501 0.656892 0
0.557185 0.652981 0
0.663734 0.649071 0
0.778104 0.642229 0
0.904203 0.633431 0
1 0.522972 0
1 0 0.0938416
0 0.760508 0
0 0.760508 0
0 0.760508 0
0 0.760508 0
0 0.759531 0
0 0.759531 0
0 0.758553 0
0 0.756598 0
0.135875 0.755621 0
0.29521 0.753666 0
0.412512 0.751711 0
0.522972 0.748778 0
0.636364 0.744868 0
0.755621 0.739003 0
0.886608 0.73216 0
1 0.608993 0
1 0.258065 0.083089
0 0.86608 0
0 0.86608 0
0 0.86608 0
0 0.86608 0
0 0.86608 0
0 0.865103 0
0 0.864125 0
0 0.863148 0
0 0.86217 0
0.172043 0.860215 0
0.343109 0.85826 0
0.473118 0.856305 0
0.597263 0.852395 0
0.725318 0.848485 0
0.861193 0.841642 0
1 0.690127 0
1 0.392962 0.0654936
0 1 0
0 1 0
0 1 0
0 1 0
0 1 0
0 1 0
0 1 0
0 1 0
0 1 0
0 1 0
0 1 0
0 1 0
0 1 0
0.199413 1 0
0.411535 1 0
1 0.989247 0
1 0.788856 0
0 1 0
0 1 0
0 1 0
0 1 0
0 1 0
0 1 0
0 1 0
0 1 0
0 1 0
0 1 0
0 1 0
0 1 0
0 1 0
0 1 0
0 1 0
0.489736 1 0
1 1 0
0 0 0.0478983
0.0215054 0 0.0478983
0.0508309 0 0.0459433
0.085044 0 0.0430108
0.131965 0 0.0420332
0.179863 0 0.0420332
0.27175 0 0.0430108
0.372434 0 0.0459433
0.430108 0 0.0469208
0.494624 0 0.0488759
0.56696 0 0.0518084
0.648094 0 0.054741
0.738025 0 0.058651
0.84262 0 0.0635386
0.957967 0 0.0694037
1 0 0.105572
1 0 0.127077
0 0.0205279 0.0469208
0.0175953 0.0205279 0.0459433
0.0488759 0.0166178 0.0449658
0.083089 0 0.0430108
0.131965 0 0.0420332
0.179863 0 0.0420332
0.27175 0 0.0430108
0.372434 0 0.0459433
0.430108 0 0.0469208
0.494624 0 0.0488759
0.56696 0 0.0518084
0.648094 0 0.054741
0.738025 0 0.058651
0.84262 0 0.0635386
0.957967 0 0.0684262
1 0 0.105572
1 0 0.127077
0 0.0439883 0.0430108
0 0.0439883 0.0430108
0.0420332 0.0420332 0.0420332
0.0801564 0.0391007 0.0420332
0.13001 0.028348 0.0410557
0.178886 0 0.0420332
0.270772 0 0.0430108
0.371457 0 0.0449658
0.42913 0 0.0469208
0.494624 0 0.0488759
0.56696 0 0.0518084
0.647116 0 0.054741
0.738025 0 0.058651
0.84262 0 0.0635386
0.957967 0 0.0684262
1 0 0.105572
1 0 0.127077
0 0.0742913 0.0400782
0 0.0742913 0.0400782
0.0254154 0.0733138 0.0400782
0.0723363 0.0713587 0.0400782
0.1261 0.0674487 0.0400782
0.176931 0.0596285 0.0410557
0.269795 0.028348 0.0420332
0.370479 0 0.0449658
0.42913 0 0.0459433
0.493646 0 0.0478983
0.565982 0 0.0508309
0.647116 0 0.0537634
0.738025 0 0.0576735
0.84262 0 0.0625611
0.956989 0 0.0684262
1 0 0.105572
1 0 0.1261
0 0.11828 0.0371457
0 0.117302 0.0371457
0 0.117302 0.0371457
0.0527859 0.116325 0.0371457
0.116325 0.11437 0.0381232
0.171065 0.110459 0.0381232
0.265885 0.0997067 0.0400782
0.368524 0.0772239 0.0430108
0.427175 0.0518084 0.0439883
0.492669 0 0.0469208
0.565005 0 0.0488759
0.645161 0 0.0527859
0.737048 0 0.056696
0.841642 0 0.0615836
0.956989 0 0.0674487
1 0 0.104594
1 0 0.1261
0 0.162268 0.0332356
0 0.162268 0.0332356
0 0.162268 0.0332356
0 0.16129 0.0332356
0.100684 0.160313 0.0342131
0.16129 0.15738 0.0342131
0.260997 0.150538 0.0361681
0.365591 0.13783 0.0391007
0.424242 0.128055 0.0410557
0.489736 0.112414 0.0430108
0.562072 0.0860215 0.0459433
0.643206 0 0.0498534
0.73607 0 0.0537634
0.839687 0 0.058651
0.956012 0 0.0654936
1 0 0.103617
1 0 0.125122
0 0.246334 0.0127077
0 0.246334 0.0127077
0 0.246334 0.0136852
0 0.245357 0.0136852
0 0.244379 0.0146628
0.128055 0.243402 0.0166178
0.244379 0.239492 0.0205279
0.354839 0.232649 0.0254154
0.414467 0.226784 0.028348
0.480938 0.218964 0.0322581
0.55523 0.208211 0.0361681
0.638319 0.193548 0.0400782
0.73216 0.172043 0.0459433
0.8348 0.135875 0.0518084
0.952102 0.0518084 0.058651
1 0 0.0997067
1 0 0.123167
0 0.337243 0
0 0.337243 0
0 0.337243 0
0 0.336266 0
0 0.336266 0
0 0.335288 0
0.212121 0.332356 0
0.334311 0.327468 0
0.397849 0.323558 0
0.468231 0.318671 0
0.544477 0.312805 0
0.629521 0.304008 0.0107527
0.722385 0.2913 0.0254154
0.827957 0.273705 0.0361681
0.947214 0.249267 0.0459433
1 0 0.0938416
1 0 0.120235
0 0.388074 0
0 0.388074 0
0 0.388074 0
0 0.388074 0
0 0.387097 0
0 0.386119 0
0.184751 0.384164 0
0.319648 0.380254 0
0.386119 0.378299 0
0.458456 0.374389 0
0.535679 0.368524 0
0.621701 0.360704 0
0.71652 0.350929 0
0.823069 0.337243 0.0127077
0.942326 0.317693 0.0322581
1 0 0.0889541
1 0 0.117302
0 0.446725 0
0 0.446725 0
0 0.446725 0
0 0.446725 0
0 0.446725 0
0 0.445748 0
0.136852 0.443793 0
0.297165 0.439883 0
0.368524 0.437928 0
0.443793 0.434018 0
0.523949 0.42913 0
0.611926 0.423265 0
0.7087 0.415445 0
0.816227 0.404692 0
0.936461 0.389052 0
1 0.184751 0.0821114
1 0 0.11437
0 0.511241 0
0 0.511241 0
0 0.511241 0
0 0.511241 0
0 0.511241 0
0 0.510264 0
0 0.508309 0
0.264907 0.505376 0
0.344086 0.503421 0
0.424242 0.501466 0
0.508309 0.497556 0
0.599218 0.492669 0
0.697947 0.485826 0
0.806452 0.476051 0
0.928641 0.463343 0
1 0.323558 0.0713587
1 0 0.110459
0 0.585533 0
0 0.585533 0
0 0.585533 0
0 0.584555 0
0 0.584555 0
0 0.584555 0
0 0.5826 0
0.212121 0.580645 0
0.307918 0.57869 0
0.396872 0.575758 0
0.486804 0.572825 0
0.581623 0.567937 0
0.683284 0.562072 0
0.794721 0.55523 0
0.917889 0.544477 0
1 0.431085 0.0518084
1 0 0.104594
0 0.667644 0
0 0.667644 0
0 0.667644 0
0 0.666667 0
0 0.666667 0
0 0.666667 0
0 0.664712 0
0.0977517 0.662757 0
0.251222 0.661779 0
0.356794 0.659824 0
0.456501 0.656892 0
0.557185 0.652981 0
0.663734 0.649071 0
0.778104 0.642229 0
0.904203 0.633431 0
1 0.522972 0
1 0 0.0967742
0 0.760508 0
0 0.760508 0
0 0.760508 0
0 0.760508 0
0 0.759531 0
0 0.759531 0
0 0.758553 0
0 0.756598 0
0.134897 0.755621 0
0.29521 0.753666 0
0.412512 0.751711 0
0.522972 0.748778 0
0.636364 0.744868 0
0.755621 0.739003 0
0.88563 0.73216 0
1 0.608993 0
1 0.258065 0.0860215
0 0.86608 0
0 0.86608 0
0 0.86608 0
0 0.86608 0
0 0.86608 0
0 0.865103 0
0 0.864125 0
0 0.863148 0
0 0.86217 0
0.171065 0.860215 0
0.342131 0.85826 0
0.473118 0.856305 0
0.597263 0.852395 0
0.725318 0.848485 0
0.861193 0.841642 0
1 0.690127 0
1 0.392962 0.0694037
0 1 0
0 1 0
0 1 0
0 1 0
0 1 0
0 1 0
0 1 0
0 1 0
0 1 0
0 1 0
0 1 0
0 1 0
0 1 0
0.199413 1 0
0.411535 1 0
1 0.989247 0
1 0.788856 0
0 1 0
0 1 0
0 1 0
0 1 0
0 1 0
0 1 0
0 1 0
0 1 0
0 1 0
0 1 0
0 1 0
0 1 0
0 1 0
0 1 0
0 1 0
0.489736 1 0
1 1 0
0 0 0.0801564
0.00879765 0 0.0791789
0.0469208 0 0.0772239
0.0821114 0 0.0742913
0.130987 0 0.0723363
0.179863 0 0.0713587
0.27175 0 0.0723363
0.371457 0 0.0733138
0.42913 0 0.0742913
0.494624 0 0.0762463
0.56696 0 0.0772239
0.647116 0 0.0791789
0.738025 0 0.0821114
0.84262 0 0.085044
0.957967 0 0.0889541
1 0 0.119257
1 0 0.132942
0 0.0185728 0.0782014
0 0.0185728 0.0782014
0.0449658 0.0146628 0.0762463
0.0821114 0 0.0742913
0.130987 0 0.0723363
0.178886 0 0.0713587
0.27175 0 0.0723363
0.371457 0 0.0733138
0.42913 0 0.0742913
0.494624 0 0.0762463
0.56696 0 0.0772239
0.647116 0 0.0791789
0.738025 0 0.0821114
0.84262 0 0.085044
0.957967 0 0.0889541
1 0 0.119257
